public/img/slogan.svg

<svg width="447" height="202" viewBox="0 0 447 202" xmlns="http://www.w3.org/2000/svg" xmlns:xlink="http://www.w3.org/1999/xlink"><title>EUROPEAN SPEEDRUNNER</title><defs><path d="M133 442.192h-30.336v-60.384H133v12.336h-18v11.664h18v12.336h-18v11.664h18v12.384zm11.664 0v-6.048h-6v-54.336H151v48h11.664v-48H175v54.336h-6v6.048h-24.336zm-6-6.048h6v6.048h-6v-6.048zm30.336 0h6V442h-6v-5.856zm24-42v11.664h11.664v-11.664H193zm0 48.048h-12.336v-60.384H211v6h6v24.336h-6v5.664h6v24.384h-12.336v-24.048H193v24.048zm18-60.384h6v6h-6v-6zm24 48h11.664v-35.664H235v35.664zm-6.336 12.384v-6.048h-6v-48.336h6v-6H253v6h6v48.336h-6v6.048h-24.336zM223 382h5.664v5.808H223V382zm30-.192h6v6h-6v-6zm0 54.336h6V442h-6v-5.856zm-30.336 0h6v6.048h-6v-6.048zm54.336-42v11.664h11.664v-11.664H277zm0 48.048h-12.336v-60.384H295v6h6v24.336h-6v6h-18v24.048zm18-60.384h6v6h-6v-6zm0 30.336h6V418h-6v-5.856zm42 30.048h-30.336v-60.384H337v12.336h-18v11.664h18v12.336h-18v11.664h18v12.384zm18-48.048v11.664h11.664v-11.664H355zm0 48.048h-12.336v-60.384H379v60.384h-12.336v-24.048H355v24.048zm42 0h-12.336v-60.384H421v60.384h-12.336v-48.048H397v48.048zm-324 66H42.664v-12.384h24v-11.664h-18v-6h-6v-24.336h6v-6H79v12.336H55v11.664h18v6h6v24.336h-6v6.048zM43 448h5.664v5.808H43V448zm-.336 30.144h6v6h-6v-6zM73 471.808h6v6h-6v-6zm0 30.336h6V508h-6v-5.856zm24-42v11.664h11.664v-11.664H97zm0 48.048H84.664v-60.384H115v6h6v24.336h-6v6H97v24.048zm18-60.384h6v6h-6v-6zm0 30.336h6V484h-6v-5.856zm42 30.048h-30.336v-60.384H157v12.336h-18v11.664h18v12.336h-18v11.664h18v12.384zm36 0h-30.336v-60.384H193v12.336h-18v11.664h18v12.336h-18v11.664h18v12.384zm18-12.384h11.664v-35.664H211v35.664zm-12.336 12.384v-60.384H229v6h6v48.336h-6v6.048h-30.336zM253 460.144v11.664h11.664v-11.664H253zm0 48.048h-12.336v-60.384H271v6h6v24.336h-6v5.664h6v24.384h-12.336v-24.048H253v24.048zm18-60.384h6v6h-6v-6zm17.664 60.384v-6.048h-6v-54.336H295v48h11.664v-48H319v54.336h-6v6.048h-24.336zm-6-6.048h6v6.048h-6v-6.048zm30.336 0h6V508h-6v-5.856zm24 6.048h-12.336v-60.384H361v60.384h-12.336v-48.048H337v48.048zm42 0h-12.336v-60.384H403v60.384h-12.336v-48.048H379v48.048zm60 0h-30.336v-60.384H439v12.336h-18v11.664h18v12.336h-18v11.664h18v12.384zm18-48.048v11.664h11.664v-11.664H457zm0 48.048h-12.336v-60.384H475v6h6v24.336h-6v5.664h6v24.384h-12.336v-24.048H457v24.048zm18-60.384h6v6h-6v-6zm-372 78.336v11.664h11.664v-11.664H103zm0 48.048H90.664v-60.384H127v60.384h-12.336v-24.048H103v24.048zm60 0h-30.336v-12.384h24v-11.664h-18v-6h-6v-24.336h6v-6H169v12.336h-24v11.664h18v6h6v24.336h-6v6.048zM133 514h5.664v5.808H133V514zm-.336 30.144h6v6h-6v-6zM163 537.808h6v6h-6v-6zm0 30.336h6V574h-6v-5.856zm42 6.048h-30.336v-12.384h24v-11.664h-18v-6h-6v-24.336h6v-6H211v12.336h-24v11.664h18v6h6v24.336h-6v6.048zM175 514h5.664v5.808H175V514zm-.336 30.144h6v6h-6v-6zM205 537.808h6v6h-6v-6zm0 30.336h6V574h-6v-5.856zm42 6.048h-30.336v-60.384H247v12.336h-18v11.664h18v12.336h-18v11.664h18v12.384zm18 0h-12.336v-60.384H313v60.384h-12.336v-48.048H289v48.048h-12.336v-48.048H265v48.048zm66-48.048v11.664h5.664v-11.664H331zm0 35.664h11.664v-11.664H331v11.664zm-12.336 12.384v-60.384H349v30h6v30.384h-36.336zm42 0v-60.384H373v48h18v12.384h-30.336zm60.336 0h-12.336v-24.048h-12v-36.336H409v24h11.664v-24H433v36.336h-12v24.048z" id="b"/><filter x="-5.2%" y="-6.8%" width="110.5%" height="123.9%" filterUnits="objectBoundingBox" id="a"><feOffset dy="2" in="SourceAlpha" result="shadowOffsetOuter1"/><feGaussianBlur stdDeviation="2" in="shadowOffsetOuter1" result="shadowBlurOuter1"/><feColorMatrix values="0 0 0 0 0 0 0 0 0 0 0 0 0 0 0 0 0 0 1 0" in="shadowBlurOuter1" result="shadowMatrixOuter1"/><feOffset dy="2" in="SourceAlpha" result="shadowOffsetOuter2"/><feGaussianBlur stdDeviation="2" in="shadowOffsetOuter2" result="shadowBlurOuter2"/><feColorMatrix values="0 0 0 0 0 0 0 0 0 0 0 0 0 0 0 0 0 0 1 0" in="shadowBlurOuter2" result="shadowMatrixOuter2"/><feOffset dy="2" in="SourceAlpha" result="shadowOffsetOuter3"/><feGaussianBlur stdDeviation="2" in="shadowOffsetOuter3" result="shadowBlurOuter3"/><feColorMatrix values="0 0 0 0 0 0 0 0 0 0 0 0 0 0 0 0 0 0 1 0" in="shadowBlurOuter3" result="shadowMatrixOuter3"/><feOffset dy="2" in="SourceAlpha" result="shadowOffsetOuter4"/><feGaussianBlur stdDeviation="2" in="shadowOffsetOuter4" result="shadowBlurOuter4"/><feColorMatrix values="0 0 0 0 0 0 0 0 0 0 0 0 0 0 0 0 0 0 1 0" in="shadowBlurOuter4" result="shadowMatrixOuter4"/><feOffset dy="2" in="SourceAlpha" result="shadowOffsetOuter5"/><feGaussianBlur stdDeviation="2" in="shadowOffsetOuter5" result="shadowBlurOuter5"/><feColorMatrix values="0 0 0 0 0 0 0 0 0 0 0 0 0 0 0 0 0 0 1 0" in="shadowBlurOuter5" result="shadowMatrixOuter5"/><feMerge><feMergeNode in="shadowMatrixOuter1"/><feMergeNode in="shadowMatrixOuter2"/><feMergeNode in="shadowMatrixOuter3"/><feMergeNode in="shadowMatrixOuter4"/><feMergeNode in="shadowMatrixOuter5"/></feMerge></filter></defs><g transform="translate(-38 -379)" fill="none" fill-rule="evenodd"><use fill="#000" filter="url(#a)" xlink:href="#b"/><use fill="#FFF" xlink:href="#b"/></g></svg>

<?xml version="1.0" encoding="UTF-8"?>
<svg width="447px" height="202px" viewBox="0 0 447 202" version="1.1" xmlns="http://www.w3.org/2000/svg" xmlns:xlink="http://www.w3.org/1999/xlink">
    <!-- Generator: Sketch 47.1 (45422) - http://www.bohemiancoding.com/sketch -->
    <title>EUROPEAN SPEEDRUNNER</title>
    <desc>Created with Sketch.</desc>
    <defs>
        <path d="M133,442.192 L102.664,442.192 L102.664,381.808 L133,381.808 L133,394.144 L115,394.144 L115,405.808 L133,405.808 L133,418.144 L115,418.144 L115,429.808 L133,429.808 L133,442.192 Z M144.664,442.192 L144.664,436.144 L138.664,436.144 L138.664,381.808 L151,381.808 L151,429.808 L162.664,429.808 L162.664,381.808 L175,381.808 L175,436.144 L169,436.144 L169,442.192 L144.664,442.192 Z M138.664,436.144 L144.664,436.144 L144.664,442.192 L138.664,442.192 L138.664,436.144 Z M169,436.144 L175,436.144 L175,442 L169,442 L169,436.144 Z M193,394.144 L193,405.808 L204.664,405.808 L204.664,394.144 L193,394.144 Z M193,442.192 L180.664,442.192 L180.664,381.808 L211,381.808 L211,387.808 L217,387.808 L217,412.144 L211,412.144 L211,417.808 L217,417.808 L217,442.192 L204.664,442.192 L204.664,418.144 L193,418.144 L193,442.192 Z M211,381.808 L217,381.808 L217,387.808 L211,387.808 L211,381.808 Z M235,429.808 L246.664,429.808 L246.664,394.144 L235,394.144 L235,429.808 Z M228.664,442.192 L228.664,436.144 L222.664,436.144 L222.664,387.808 L228.664,387.808 L228.664,381.808 L253,381.808 L253,387.808 L259,387.808 L259,436.144 L253,436.144 L253,442.192 L228.664,442.192 Z M223,382 L228.664,382 L228.664,387.808 L223,387.808 L223,382 Z M253,381.808 L259,381.808 L259,387.808 L253,387.808 L253,381.808 Z M253,436.144 L259,436.144 L259,442 L253,442 L253,436.144 Z M222.664,436.144 L228.664,436.144 L228.664,442.192 L222.664,442.192 L222.664,436.144 Z M277,394.144 L277,405.808 L288.664,405.808 L288.664,394.144 L277,394.144 Z M277,442.192 L264.664,442.192 L264.664,381.808 L295,381.808 L295,387.808 L301,387.808 L301,412.144 L295,412.144 L295,418.144 L277,418.144 L277,442.192 Z M295,381.808 L301,381.808 L301,387.808 L295,387.808 L295,381.808 Z M295,412.144 L301,412.144 L301,418 L295,418 L295,412.144 Z M337,442.192 L306.664,442.192 L306.664,381.808 L337,381.808 L337,394.144 L319,394.144 L319,405.808 L337,405.808 L337,418.144 L319,418.144 L319,429.808 L337,429.808 L337,442.192 Z M355,394.144 L355,405.808 L366.664,405.808 L366.664,394.144 L355,394.144 Z M355,442.192 L342.664,442.192 L342.664,381.808 L379,381.808 L379,442.192 L366.664,442.192 L366.664,418.144 L355,418.144 L355,442.192 Z M397,442.192 L384.664,442.192 L384.664,381.808 L421,381.808 L421,442.192 L408.664,442.192 L408.664,394.144 L397,394.144 L397,442.192 Z M73,508.192 L42.664,508.192 L42.664,495.808 L66.664,495.808 L66.664,484.144 L48.664,484.144 L48.664,478.144 L42.664,478.144 L42.664,453.808 L48.664,453.808 L48.664,447.808 L79,447.808 L79,460.144 L55,460.144 L55,471.808 L73,471.808 L73,477.808 L79,477.808 L79,502.144 L73,502.144 L73,508.192 Z M43,448 L48.664,448 L48.664,453.808 L43,453.808 L43,448 Z M42.664,478.144 L48.664,478.144 L48.664,484.144 L42.664,484.144 L42.664,478.144 Z M73,471.808 L79,471.808 L79,477.808 L73,477.808 L73,471.808 Z M73,502.144 L79,502.144 L79,508 L73,508 L73,502.144 Z M97,460.144 L97,471.808 L108.664,471.808 L108.664,460.144 L97,460.144 Z M97,508.192 L84.664,508.192 L84.664,447.808 L115,447.808 L115,453.808 L121,453.808 L121,478.144 L115,478.144 L115,484.144 L97,484.144 L97,508.192 Z M115,447.808 L121,447.808 L121,453.808 L115,453.808 L115,447.808 Z M115,478.144 L121,478.144 L121,484 L115,484 L115,478.144 Z M157,508.192 L126.664,508.192 L126.664,447.808 L157,447.808 L157,460.144 L139,460.144 L139,471.808 L157,471.808 L157,484.144 L139,484.144 L139,495.808 L157,495.808 L157,508.192 Z M193,508.192 L162.664,508.192 L162.664,447.808 L193,447.808 L193,460.144 L175,460.144 L175,471.808 L193,471.808 L193,484.144 L175,484.144 L175,495.808 L193,495.808 L193,508.192 Z M211,495.808 L222.664,495.808 L222.664,460.144 L211,460.144 L211,495.808 Z M198.664,508.192 L198.664,447.808 L229,447.808 L229,453.808 L235,453.808 L235,502.144 L229,502.144 L229,508.192 L198.664,508.192 Z M253,460.144 L253,471.808 L264.664,471.808 L264.664,460.144 L253,460.144 Z M253,508.192 L240.664,508.192 L240.664,447.808 L271,447.808 L271,453.808 L277,453.808 L277,478.144 L271,478.144 L271,483.808 L277,483.808 L277,508.192 L264.664,508.192 L264.664,484.144 L253,484.144 L253,508.192 Z M271,447.808 L277,447.808 L277,453.808 L271,453.808 L271,447.808 Z M288.664,508.192 L288.664,502.144 L282.664,502.144 L282.664,447.808 L295,447.808 L295,495.808 L306.664,495.808 L306.664,447.808 L319,447.808 L319,502.144 L313,502.144 L313,508.192 L288.664,508.192 Z M282.664,502.144 L288.664,502.144 L288.664,508.192 L282.664,508.192 L282.664,502.144 Z M313,502.144 L319,502.144 L319,508 L313,508 L313,502.144 Z M337,508.192 L324.664,508.192 L324.664,447.808 L361,447.808 L361,508.192 L348.664,508.192 L348.664,460.144 L337,460.144 L337,508.192 Z M379,508.192 L366.664,508.192 L366.664,447.808 L403,447.808 L403,508.192 L390.664,508.192 L390.664,460.144 L379,460.144 L379,508.192 Z M439,508.192 L408.664,508.192 L408.664,447.808 L439,447.808 L439,460.144 L421,460.144 L421,471.808 L439,471.808 L439,484.144 L421,484.144 L421,495.808 L439,495.808 L439,508.192 Z M457,460.144 L457,471.808 L468.664,471.808 L468.664,460.144 L457,460.144 Z M457,508.192 L444.664,508.192 L444.664,447.808 L475,447.808 L475,453.808 L481,453.808 L481,478.144 L475,478.144 L475,483.808 L481,483.808 L481,508.192 L468.664,508.192 L468.664,484.144 L457,484.144 L457,508.192 Z M475,447.808 L481,447.808 L481,453.808 L475,453.808 L475,447.808 Z M103,526.144 L103,537.808 L114.664,537.808 L114.664,526.144 L103,526.144 Z M103,574.192 L90.664,574.192 L90.664,513.808 L127,513.808 L127,574.192 L114.664,574.192 L114.664,550.144 L103,550.144 L103,574.192 Z M163,574.192 L132.664,574.192 L132.664,561.808 L156.664,561.808 L156.664,550.144 L138.664,550.144 L138.664,544.144 L132.664,544.144 L132.664,519.808 L138.664,519.808 L138.664,513.808 L169,513.808 L169,526.144 L145,526.144 L145,537.808 L163,537.808 L163,543.808 L169,543.808 L169,568.144 L163,568.144 L163,574.192 Z M133,514 L138.664,514 L138.664,519.808 L133,519.808 L133,514 Z M132.664,544.144 L138.664,544.144 L138.664,550.144 L132.664,550.144 L132.664,544.144 Z M163,537.808 L169,537.808 L169,543.808 L163,543.808 L163,537.808 Z M163,568.144 L169,568.144 L169,574 L163,574 L163,568.144 Z M205,574.192 L174.664,574.192 L174.664,561.808 L198.664,561.808 L198.664,550.144 L180.664,550.144 L180.664,544.144 L174.664,544.144 L174.664,519.808 L180.664,519.808 L180.664,513.808 L211,513.808 L211,526.144 L187,526.144 L187,537.808 L205,537.808 L205,543.808 L211,543.808 L211,568.144 L205,568.144 L205,574.192 Z M175,514 L180.664,514 L180.664,519.808 L175,519.808 L175,514 Z M174.664,544.144 L180.664,544.144 L180.664,550.144 L174.664,550.144 L174.664,544.144 Z M205,537.808 L211,537.808 L211,543.808 L205,543.808 L205,537.808 Z M205,568.144 L211,568.144 L211,574 L205,574 L205,568.144 Z M247,574.192 L216.664,574.192 L216.664,513.808 L247,513.808 L247,526.144 L229,526.144 L229,537.808 L247,537.808 L247,550.144 L229,550.144 L229,561.808 L247,561.808 L247,574.192 Z M265,574.192 L252.664,574.192 L252.664,513.808 L313,513.808 L313,574.192 L300.664,574.192 L300.664,526.144 L289,526.144 L289,574.192 L276.664,574.192 L276.664,526.144 L265,526.144 L265,574.192 Z M331,526.144 L331,537.808 L336.664,537.808 L336.664,526.144 L331,526.144 Z M331,561.808 L342.664,561.808 L342.664,550.144 L331,550.144 L331,561.808 Z M318.664,574.192 L318.664,513.808 L349,513.808 L349,543.808 L355,543.808 L355,574.192 L318.664,574.192 Z M360.664,574.192 L360.664,513.808 L373,513.808 L373,561.808 L391,561.808 L391,574.192 L360.664,574.192 Z M421,574.192 L408.664,574.192 L408.664,550.144 L396.664,550.144 L396.664,513.808 L409,513.808 L409,537.808 L420.664,537.808 L420.664,513.808 L433,513.808 L433,550.144 L421,550.144 L421,574.192 Z" id="path-1"></path>
        <filter x="-5.2%" y="-6.8%" width="110.5%" height="123.9%" filterUnits="objectBoundingBox" id="filter-2">
            <feOffset dx="0" dy="2" in="SourceAlpha" result="shadowOffsetOuter1"></feOffset>
            <feGaussianBlur stdDeviation="2" in="shadowOffsetOuter1" result="shadowBlurOuter1"></feGaussianBlur>
            <feColorMatrix values="0 0 0 0 0   0 0 0 0 0   0 0 0 0 0  0 0 0 1 0" type="matrix" in="shadowBlurOuter1" result="shadowMatrixOuter1"></feColorMatrix>
            <feOffset dx="0" dy="2" in="SourceAlpha" result="shadowOffsetOuter2"></feOffset>
            <feGaussianBlur stdDeviation="2" in="shadowOffsetOuter2" result="shadowBlurOuter2"></feGaussianBlur>
            <feColorMatrix values="0 0 0 0 0   0 0 0 0 0   0 0 0 0 0  0 0 0 1 0" type="matrix" in="shadowBlurOuter2" result="shadowMatrixOuter2"></feColorMatrix>
            <feOffset dx="0" dy="2" in="SourceAlpha" result="shadowOffsetOuter3"></feOffset>
            <feGaussianBlur stdDeviation="2" in="shadowOffsetOuter3" result="shadowBlurOuter3"></feGaussianBlur>
            <feColorMatrix values="0 0 0 0 0   0 0 0 0 0   0 0 0 0 0  0 0 0 1 0" type="matrix" in="shadowBlurOuter3" result="shadowMatrixOuter3"></feColorMatrix>
            <feOffset dx="0" dy="2" in="SourceAlpha" result="shadowOffsetOuter4"></feOffset>
            <feGaussianBlur stdDeviation="2" in="shadowOffsetOuter4" result="shadowBlurOuter4"></feGaussianBlur>
            <feColorMatrix values="0 0 0 0 0   0 0 0 0 0   0 0 0 0 0  0 0 0 1 0" type="matrix" in="shadowBlurOuter4" result="shadowMatrixOuter4"></feColorMatrix>
            <feOffset dx="0" dy="2" in="SourceAlpha" result="shadowOffsetOuter5"></feOffset>
            <feGaussianBlur stdDeviation="2" in="shadowOffsetOuter5" result="shadowBlurOuter5"></feGaussianBlur>
            <feColorMatrix values="0 0 0 0 0   0 0 0 0 0   0 0 0 0 0  0 0 0 1 0" type="matrix" in="shadowBlurOuter5" result="shadowMatrixOuter5"></feColorMatrix>
            <feMerge>
                <feMergeNode in="shadowMatrixOuter1"></feMergeNode>
                <feMergeNode in="shadowMatrixOuter2"></feMergeNode>
                <feMergeNode in="shadowMatrixOuter3"></feMergeNode>
                <feMergeNode in="shadowMatrixOuter4"></feMergeNode>
                <feMergeNode in="shadowMatrixOuter5"></feMergeNode>
            </feMerge>
        </filter>
    </defs>
    <g id="Page-1" stroke="none" stroke-width="1" fill="none" fill-rule="evenodd">
        <g id="HOME-Copy-4" transform="translate(-38.000000, -379.000000)">
            <g id="EUROPEAN-SPEEDRUNNER">
                <use fill="black" fill-opacity="1" filter="url(#filter-2)" xlink:href="#path-1"></use>
                <use fill="#FFFFFF" fill-rule="evenodd" xlink:href="#path-1"></use>
            </g>
        </g>
    </g>
</svg>
